icons/desktop/16/svg/folder-arrow-down-16.svg

<svg width="16" height="16" viewBox="0 0 16 16" fill="none" xmlns="http://www.w3.org/2000/svg">
<path d="M12.796 3.13202H14C15.034 3.13202 15.875 3.97302 15.875 5.00702V13.007C15.875 14.041 15.034 14.882 14 14.882H2C0.966 14.882 0.125 14.041 0.125 13.007V3.00702C0.125 1.97302 0.966 1.13202 2 1.13202H5.642C6.173 1.13202 6.681 1.35802 7.036 1.75202L8.278 3.13202H8.291V4.38202H8C7.823 4.38202 7.654 4.30702 7.536 4.17502L6.108 2.58902C5.989 2.45802 5.82 2.38202 5.643 2.38202H2C1.655 2.38202 1.375 2.66202 1.375 3.00702V13.007C1.375 13.352 1.655 13.632 2 13.632H14C14.345 13.632 14.625 13.352 14.625 13.007V5.00702C14.625 4.66202 14.345 4.38202 14 4.38202H12.796V3.13202Z" fill="black"/>
<path d="M7.86301 7.31798H9.79501V4.38198H9.79101V3.13198H9.79401V2.30798H11.294V3.13198H11.296V4.38198H11.294V7.31798H13.226C13.672 7.31798 13.895 7.85698 13.58 8.17198L10.898 10.854C10.703 11.049 10.386 11.049 10.191 10.854L7.50901 8.17198C7.19401 7.85698 7.41801 7.31798 7.86301 7.31798Z" fill="black"/>
</svg>

<!-- This Source Code Form is subject to the terms of the Mozilla Public
   - License, v. 2.0. If a copy of the MPL was not distributed with this
   - file, You can obtain one at http://mozilla.org/MPL/2.0/. -->
<svg xmlns="http://www.w3.org/2000/svg" width="16" height="16" fill="context-fill" fill-opacity="context-fill-opacity" viewBox="0 0 16 16">
    <path d="M12.796 3.132H14c1.034 0 1.875.841 1.875 1.875v8A1.877 1.877 0 0 1 14 14.882H2a1.877 1.877 0 0 1-1.875-1.875v-10C.125 1.973.966 1.132 2 1.132h3.642c.531 0 1.039.226 1.394.62l1.242 1.38h.013v1.25H8a.62.62 0 0 1-.464-.207L6.108 2.589a.63.63 0 0 0-.465-.207H2a.625.625 0 0 0-.625.625v10c0 .345.28.625.625.625h12c.345 0 .625-.28.625-.625v-8A.625.625 0 0 0 14 4.382h-1.204z" />
    <path d="M7.863 7.318h1.932V4.382h-.004v-1.25h.003v-.824h1.5v.824h.002v1.25h-.002v2.936h1.932a.5.5 0 0 1 .354.854l-2.682 2.682a.5.5 0 0 1-.707 0L7.509 8.172a.5.5 0 0 1 .354-.854" />
</svg>
